X:201
T:Roger the Ploughboy - Calliope
%%VWML:SBG-1-2--0
F:http://www.vwml.org/record/SBG/1/2/
Z:Original Sibelius transcriptions by M. & S. Graebe
M:6/8
I:linebreak $
K:G
V:1 treble nm="P1"
V:1
 D | D G G G3/2 A/ G | B c d e2 c/d/ | e3/2 f e e/ f3/2 g/ | d c/B/ A/G/ A2 A/ A/ |$ %5
 A d d d3/2 e/ f | d e ^c d2 f | d B e ^c A d | d3/2 e/ ^c d2 A | A B =c c B A |$ B A G d2 B | %11
 d/ e3/2 e e3/2 f/ g | f B ^d e2 e/f/ | g d d d B e | d B G D _B/c/ |$ d3 z c d | e3 z d ^c | %17
 d D D !fermata!D2 _B/c/ | d3 z c d | e3 z A d | =B G G G2 x | %21

